images/logos/spotify.svg

<?xml version="1.0" encoding="UTF-8"?>
<svg width="100px" height="50px" viewBox="0 0 100 50" version="1.1" xmlns="http://www.w3.org/2000/svg" xmlns:xlink="http://www.w3.org/1999/xlink">
    <!-- Generator: Sketch 59.1 (86144) - https://sketch.com -->
    <title>spotify</title>
    <desc>Created with Sketch.</desc>
    <g id="Page-1" stroke="none" stroke-width="1" fill="none" fill-rule="evenodd">
        <g id="Artboard" fill="#1DB954" fill-rule="nonzero">
            <g id="spotify">
                <path d="M26.4798777,23.4524452 C22.1291619,20.8408753 14.9536168,20.6002459 10.8001942,21.874099 C10.4788239,21.9713787 10.1319196,21.9363818 9.8364549,21.7768737 C9.5409902,21.6173656 9.32140043,21.3465378 9.22640971,21.0244835 C9.02208365,20.3530632 9.39723716,19.6424604 10.0669019,19.4324522 C14.8338723,17.9692888 22.7598161,18.2521138 27.7685563,21.2571299 C28.3684191,21.6175037 28.5657124,22.3998343 28.2099003,23.0053992 C28.0414821,23.2959634 27.7635872,23.5068624 27.4384223,23.5908866 C27.1132574,23.6749107 26.7679791,23.6250426 26.4798777,23.4524452 L26.4798777,23.4524452 Z M26.3373248,27.3207619 C26.1931621,27.5605827 25.9589035,27.732627 25.6869333,27.7984228 C25.4149631,27.8642186 25.1279688,27.8182772 24.8901273,27.670872 C21.2635804,25.4162546 15.7325261,24.7639323 11.4411123,26.0811215 C11.1729758,26.1621139 10.8836062,26.1327732 10.6371845,25.999607 C10.3907627,25.8664407 10.2076589,25.640457 10.1284847,25.3717781 C9.95975667,24.8122192 10.2723886,24.2210144 10.8298452,24.0454655 C15.7313857,22.5412468 21.8258092,23.2699775 25.9917764,25.8587389 C26.4855798,26.1666533 26.6418179,26.8212564 26.3373248,27.3207619 L26.3373248,27.3207619 Z M24.6859915,31.0351215 C24.5714642,31.227441 24.3844997,31.36571 24.1670707,31.4188879 C23.9496416,31.4720659 23.719965,31.4356972 23.529602,31.3179465 C20.3592245,29.3598393 16.3711633,28.9173549 11.6726182,30.0030382 C11.4541759,30.0526016 11.224986,30.0129199 11.0359222,29.8928013 C10.8468585,29.7726826 10.7135632,29.5820651 10.6656242,29.3632605 C10.5602116,28.9074278 10.843165,28.4521532 11.2985593,28.3448623 C16.4395887,27.1565409 20.8496066,27.6685911 24.4077281,29.8661873 C24.8046491,30.1140946 24.9286417,30.6349651 24.6859915,31.0351215 L24.6859915,31.0351215 Z M18.4969128,11.357113 C11.041964,11.357113 5,17.4652215 5,25 C5,32.5359189 11.041964,38.642887 18.4969128,38.642887 C25.9507212,38.642887 31.9938256,32.5359189 31.9938256,25 C31.9938256,17.4652215 25.9507212,11.357113 18.4957724,11.357113 L18.4969128,11.357113 Z M41.7193577,23.9519507 C39.3894724,23.3897219 38.9743582,22.9962758 38.9743582,22.1671879 C38.9743582,21.3848573 39.7042293,20.8579816 40.7876317,20.8579816 C41.8379618,20.8579816 42.8803089,21.2582703 43.9728347,22.0816561 C44.005907,22.1067454 44.0469622,22.1158688 44.0880175,22.1101667 C44.1286302,22.1038367 44.1648883,22.0811754 44.1883747,22.0474434 L45.3265175,20.4257611 C45.3730955,20.3590601 45.3606932,20.2677785 45.2980069,20.2159232 C43.997924,19.1610314 42.5336202,18.6489812 40.8218444,18.6489812 C38.30607,18.6489812 36.5486773,20.1748679 36.5486773,22.358779 C36.5486773,24.701209 38.0654407,25.5291565 40.6849936,26.1700746 C42.9145216,26.6889673 43.2908614,27.1246091 43.2908614,27.902378 C43.2908614,28.7633977 42.5301989,29.2993968 41.305384,29.2993968 C39.9448587,29.2993968 38.8352266,28.8363849 37.5944457,27.7495612 C37.5638103,27.7222654 37.5233603,27.7086578 37.482456,27.7118871 C37.4415517,27.7151163 37.403738,27.7349027 37.3777653,27.7666676 L36.1016313,29.3016777 C36.0476243,29.3653428 36.054201,29.4604516 36.1164568,29.5160773 C37.5613734,30.8195814 39.3370129,31.5072568 41.2529245,31.5072568 C43.9648517,31.5072568 45.7165423,30.0098807 45.7165423,27.69254 C45.7165423,25.7332923 44.5590124,24.64989 41.7193577,23.9519507 M53.8192517,26.5772058 C53.8192517,28.2308199 52.8111173,29.386069 51.3673411,29.386069 C49.9418116,29.386069 48.8652518,28.1795009 48.8652518,26.5772058 C48.8652518,24.9760511 49.9406712,23.769483 51.3684815,23.769483 C52.7883088,23.769483 53.8192517,24.9498214 53.8192517,26.5772058 Z M51.8508806,21.6277675 C50.6762444,21.6277675 49.711446,22.0964816 48.9165708,23.0555778 L48.9165708,21.9767371 C48.9172067,21.8921481 48.8494767,21.8228904 48.7648945,21.8216395 L46.6779194,21.8216395 C46.637087,21.8219409 46.5980469,21.838451 46.569388,21.8675377 C46.540729,21.8966244 46.524799,21.9359048 46.5250984,21.9767371 L46.5250984,33.9671504 C46.5250984,34.0526822 46.593528,34.122248 46.6779194,34.122248 L48.7648945,34.122248 C48.8494767,34.1209972 48.9172067,34.0517395 48.9165708,33.9671504 L48.9165708,30.1820847 C49.7125865,31.0841597 50.6762444,31.5243632 51.8508806,31.5243632 C54.0347918,31.5243632 56.2449326,29.8251321 56.2449326,26.5772058 C56.2449326,23.3281391 54.0347918,21.6277675 51.8508806,21.6277675 L51.8508806,21.6277675 Z M61.9116973,29.4031754 C60.4154616,29.4031754 59.2887231,28.1886243 59.2887231,26.5772058 C59.2887231,24.9600852 60.3766872,23.7854489 61.8774846,23.7854489 C63.3828437,23.7854489 64.5175651,25.0011404 64.5175651,26.6136993 C64.5175651,28.2296795 63.4227585,29.4031754 61.9116973,29.4031754 Z M61.9116973,21.628908 C59.0994128,21.628908 56.8961145,23.8185212 56.8961145,26.6125589 C56.8961145,29.3769456 59.0845873,31.5437504 61.8774846,31.5437504 C64.6988925,31.5437504 66.9090333,29.3621201 66.9090333,26.5772058 C66.9090333,23.8025553 64.7148584,21.6277675 61.9116973,21.6277675 L61.9116973,21.628908 Z M72.9145038,21.8216395 L70.6188311,21.8216395 L70.6188311,19.4495585 C70.619442,19.4086353 70.6036118,19.3691772 70.5748866,19.3400233 C70.5461614,19.3108694 70.5069422,19.2944609 70.4660144,19.2944609 L68.3790393,19.2944609 C68.2949031,19.2957075 68.2273537,19.3642727 68.2273629,19.4484181 L68.2273629,21.8216395 L67.2237902,21.8216395 C67.1830605,21.8219389 67.1441356,21.8384857 67.1156575,21.8676062 C67.0871794,21.8967266 67.0715049,21.9360109 67.0720968,21.9767371 L67.0720968,23.7900106 C67.0720968,23.8744019 67.1405393,23.9439678 67.2237902,23.9439678 L68.2273629,23.9439678 L68.2273629,28.6345299 C68.2273629,30.5299138 69.1602294,31.4912909 71.000873,31.4912909 C71.7489909,31.4912909 72.3693813,31.3350529 72.955559,30.9986279 C73.0034436,30.9712538 73.0330258,30.9203551 73.0331078,30.8651984 L73.0331078,29.1385971 C73.0329595,29.085236 73.0053907,29.0356983 72.9601207,29.0074484 C72.9152693,28.9794946 72.8591012,28.9769023 72.8118656,29.0006058 C72.4092961,29.2058821 72.0215521,29.2993968 71.5870507,29.2993968 C70.9176221,29.2993968 70.6176907,28.9914825 70.6176907,28.303807 L70.6176907,23.9428274 L72.9145038,23.9428274 C72.9553361,23.942526 72.9943762,23.9260159 73.0230352,23.8969292 C73.0516941,23.8678425 73.0676241,23.8285621 73.0673248,23.7877298 L73.0673248,21.9744563 C73.0676245,21.9337295 73.0516585,21.8945664 73.0229667,21.8656606 C72.994275,21.8367547 72.9552317,21.820498 72.9145038,21.8204991 M80.914575,21.8307629 L80.914575,21.5399549 C80.914575,20.6823564 81.2395957,20.2991741 81.9694668,20.2991741 C82.4039682,20.2991741 82.7540782,20.3869867 83.1452435,20.5192758 C83.1918682,20.5342041 83.2428315,20.5257102 83.2820943,20.4964674 C83.3223717,20.4674018 83.3461522,20.42069 83.3459581,20.3710208 L83.3459581,18.5942409 C83.3464916,18.5263377 83.3024745,18.4661038 83.2376178,18.4459858 C82.6762652,18.2731684 82.0914896,18.1885298 81.504174,18.1950926 C79.5768582,18.1950926 78.5573195,19.2921801 78.5573195,21.3654701 L78.5573195,21.8125162 L77.5548872,21.8125162 C77.4703047,21.8131427 77.4020705,21.8818885 77.4020705,21.9664733 L77.4020705,23.7888702 C77.4020705,23.8744019 77.4704959,23.9439678 77.5548872,23.9439678 L78.55846,23.9439678 L78.55846,31.1788148 C78.55846,31.2643466 78.625745,31.332772 78.7101363,31.332772 L80.7971114,31.332772 C80.8803623,31.332772 80.9487877,31.2643466 80.9487877,31.1788148 L80.9487877,23.9428274 L82.8977716,23.9428274 L85.8822601,31.1753936 C85.5435543,31.9360561 85.2094102,32.0877324 84.7555216,32.0877324 C84.3871648,32.0877324 84.0005612,31.9759709 83.6036938,31.7570096 C83.5666231,31.7369378 83.5229792,31.7328204 83.4828089,31.7456053 C83.4426134,31.759796 83.4100303,31.7899045 83.3927154,31.8288563 L82.6856528,33.3969387 C82.651589,33.470214 82.6799722,33.5573556 82.750657,33.5965128 C83.4286148,33.9853761 84.1987008,34.1846924 84.980185,34.1735671 C86.5197568,34.1735671 87.3716532,33.4482577 88.1231923,31.4958526 L91.7428967,22.0406009 C91.7613895,21.9929737 91.7554272,21.9393137 91.7269308,21.8969075 C91.6988905,21.8550309 91.6518813,21.8298169 91.6014842,21.8296225 L89.4289773,21.8296225 C89.3635528,21.8299273 89.3054666,21.8715481 89.2841435,21.9334011 L87.0591772,28.3585474 L84.622092,21.9288394 C84.6000868,21.8691419 84.543163,21.829523 84.4795391,21.8296225 L80.914575,21.8296225 M76.2764724,21.8216395 L74.1894973,21.8216395 C74.1049151,21.8228904 74.0371851,21.8921481 74.0378165,21.9767371 L74.0378165,31.1788148 C74.0378165,31.2643466 74.1062464,31.332772 74.1906377,31.332772 L76.2776128,31.332772 C76.3608638,31.332772 76.4292892,31.2643466 76.4292892,31.1788148 L76.4292892,21.9755967 C76.4292892,21.8910119 76.3610549,21.8222661 76.2764724,21.8216395 M75.2432487,17.6317234 C74.4127507,17.6367482 73.7432227,18.3134205 73.7469917,19.143925 C73.7448901,19.5431728 73.9014577,19.9269111 74.1822714,20.210719 C74.4630851,20.4945269 74.8451413,20.6551555 75.2443891,20.6572671 C76.0753345,20.6522427 76.7450466,19.9748739 76.7406466,19.143925 C76.7406466,18.3079946 76.0700558,17.6317234 75.2443891,17.6317234 M93.6097701,22.7373997 L93.2277282,22.7373997 L93.2277282,23.2300626 L93.6097701,23.2300626 C93.8002208,23.2300626 93.9142632,23.1354075 93.9142632,22.9837311 C93.9142632,22.8229314 93.8002208,22.7373997 93.6097701,22.7373997 L93.6097701,22.7373997 Z M93.857242,23.4399006 L94.2734966,24.0283591 L93.9222461,24.0283591 L93.5493276,23.4889388 L93.2277282,23.4889388 L93.2277282,24.0283591 L92.9346393,24.0283591 L92.9346393,22.4694001 L93.6211743,22.4694001 C93.9792673,22.4694001 94.215335,22.6552892 94.215335,22.9666248 C94.2255937,23.1900566 94.0750469,23.3890277 93.857242,23.4399006 L93.857242,23.4399006 Z M93.5322213,21.9516478 C92.7795417,21.9516478 92.2104704,22.5560723 92.2104704,23.2962072 C92.2104704,24.0352017 92.7761205,24.6316432 93.5242383,24.6316432 C94.2769179,24.6316432 94.8471297,24.0272187 94.8471297,23.2870838 C94.8471297,22.5480893 94.2803391,21.9516478 93.5322213,21.9516478 L93.5322213,21.9516478 Z M93.5242383,24.7798983 C93.1324761,24.7790014 92.7572523,24.6218837 92.4817364,24.3433708 C92.2062206,24.0648579 92.0531716,23.6879562 92.0565132,23.2962072 C92.0565132,22.4819448 92.7065546,21.8033928 93.5322213,21.8033928 C93.9239835,21.8042896 94.2992073,21.9614073 94.5747232,22.2399202 C94.850239,22.5184331 95.0032881,22.8953348 94.9999464,23.2870838 C94.9999464,24.1013462 94.349905,24.7810387 93.5242383,24.7810387 L93.5242383,24.7798983 Z" id="Shape"></path>
            </g>
        </g>
    </g>
</svg>

<svg xmlns="http://www.w3.org/2000/svg" width="100" height="50"><path fill="#ffffff" fill-rule="nonzero" d="M26.48 23.452c-4.35-2.611-11.526-2.852-15.68-1.578a1.26 1.26 0 0 1-1.574-.85 1.278 1.278 0 0 1 .84-1.592c4.768-1.463 12.694-1.18 17.703 1.825.6.36.797 1.143.44 1.748a1.254 1.254 0 0 1-1.73.447Zm-.143 3.869a1.046 1.046 0 0 1-1.447.35c-3.626-2.255-9.157-2.907-13.449-1.59a1.051 1.051 0 0 1-1.313-.71c-.168-.559.144-1.15.702-1.326 4.901-1.504 10.996-.775 15.162 1.814.494.308.65.962.345 1.462Zm-1.651 3.714a.835.835 0 0 1-1.156.283c-3.17-1.958-7.159-2.4-11.857-1.315a.84.84 0 0 1-1.007-.64.85.85 0 0 1 .633-1.018c5.14-1.188 9.55-.676 13.109 1.521.397.248.52.769.278 1.17Zm-6.19-19.678C11.043 11.357 5 17.465 5 25c0 7.536 6.042 13.643 13.497 13.643 7.454 0 13.497-6.107 13.497-13.643 0-7.535-6.043-13.643-13.498-13.643ZM41.72 23.952c-2.33-.562-2.745-.956-2.745-1.785 0-.782.73-1.309 1.814-1.309 1.05 0 2.092.4 3.185 1.224a.154.154 0 0 0 .115.028.15.15 0 0 0 .1-.063l1.139-1.621a.156.156 0 0 0-.029-.21c-1.3-1.055-2.764-1.567-4.476-1.567-2.516 0-4.273 1.526-4.273 3.71 0 2.342 1.516 3.17 4.136 3.811 2.23.519 2.606.955 2.606 1.732 0 .861-.76 1.397-1.986 1.397-1.36 0-2.47-.463-3.71-1.55a.15.15 0 0 0-.217.018l-1.276 1.535a.154.154 0 0 0 .014.214c1.445 1.304 3.221 1.991 5.137 1.991 2.712 0 4.464-1.497 4.464-3.814 0-1.96-1.158-3.043-3.998-3.741m12.1 2.625c0 1.654-1.008 2.81-2.452 2.81-1.425 0-2.502-1.207-2.502-2.81 0-1.6 1.076-2.808 2.503-2.808 1.42 0 2.451 1.18 2.451 2.808Zm-1.968-4.95c-1.175 0-2.14.47-2.934 1.429v-1.08a.154.154 0 0 0-.152-.154h-2.087a.154.154 0 0 0-.153.155v11.99c0 .086.069.155.153.155h2.087a.154.154 0 0 0 .152-.155v-3.785c.796.902 1.76 1.342 2.934 1.342 2.184 0 4.394-1.699 4.394-4.947 0-3.249-2.21-4.95-4.394-4.95Zm10.06 7.776c-1.496 0-2.622-1.214-2.622-2.826 0-1.617 1.088-2.792 2.588-2.792 1.506 0 2.64 1.216 2.64 2.829 0 1.616-1.094 2.79-2.605 2.79Zm0-7.774c-2.812 0-5.015 2.19-5.015 4.984 0 2.764 2.189 4.93 4.981 4.93 2.822 0 5.032-2.18 5.032-4.966 0-2.774-2.194-4.95-4.997-4.95v.002Zm11.004.193h-2.296V19.45a.153.153 0 0 0-.153-.156h-2.087a.154.154 0 0 0-.152.154v2.374h-1.003a.153.153 0 0 0-.152.155v1.813c0 .084.069.154.152.154h1.003v4.69c0 1.896.933 2.857 2.774 2.857.748 0 1.368-.156 1.955-.492a.154.154 0 0 0 .077-.134V29.14a.155.155 0 0 0-.073-.132.152.152 0 0 0-.148-.006c-.403.205-.79.298-1.225.298-.67 0-.97-.308-.97-.995v-4.361h2.298a.154.154 0 0 0 .152-.155v-1.814a.153.153 0 0 0-.152-.154m8 .01v-.29c0-.858.325-1.24 1.054-1.24.435 0 .785.087 1.176.22a.152.152 0 0 0 .137-.024.154.154 0 0 0 .064-.125v-1.777a.154.154 0 0 0-.108-.148 5.676 5.676 0 0 0-1.734-.25c-1.927 0-2.947 1.096-2.947 3.17v.447h-1.002a.154.154 0 0 0-.153.153v1.823c0 .085.068.155.153.155h1.003v7.235c0 .085.068.154.152.154h2.087a.153.153 0 0 0 .152-.154v-7.236h1.949l2.984 7.232c-.338.761-.673.913-1.126.913-.369 0-.755-.112-1.152-.331a.155.155 0 0 0-.121-.011.155.155 0 0 0-.09.083l-.707 1.568a.154.154 0 0 0 .065.2 4.356 4.356 0 0 0 2.23.577c1.539 0 2.39-.726 3.142-2.678l3.62-9.455a.156.156 0 0 0-.016-.144.152.152 0 0 0-.126-.067H89.43a.154.154 0 0 0-.145.103L87.06 28.36l-2.437-6.43a.152.152 0 0 0-.142-.1h-3.565m-4.639-.007H74.19a.154.154 0 0 0-.151.155v9.202c0 .085.068.154.153.154h2.087a.153.153 0 0 0 .151-.154v-9.203a.154.154 0 0 0-.153-.154m-1.033-4.19c-.83.005-1.5.681-1.496 1.512a1.505 1.505 0 0 0 1.497 1.513c.831-.005 1.501-.682 1.497-1.513 0-.836-.67-1.512-1.497-1.512m18.366 5.105h-.382v.493h.382c.19 0 .304-.095.304-.246 0-.161-.114-.247-.304-.247Zm.247.703.416.588h-.35l-.374-.54h-.321v.54h-.293V22.47h.686c.358 0 .594.186.594.498a.464.464 0 0 1-.358.473Zm-.325-1.488c-.752 0-1.322.604-1.322 1.344 0 .74.566 1.336 1.314 1.336.753 0 1.323-.605 1.323-1.345 0-.739-.567-1.335-1.315-1.335Zm-.008 2.828a1.471 1.471 0 0 1-1.467-1.484c0-.814.65-1.493 1.475-1.493A1.471 1.471 0 0 1 95 23.287c0 .814-.65 1.494-1.476 1.494v-.001Z"/></svg>
